docs/images/info-alt/1.svg

<svg width="93" height="81" viewBox="0 0 93 81" fill="none" xmlns="http://www.w3.org/2000/svg">
<path d="M0.735785 34.7651C0.735785 34.7651 -4.21752 80.2471 46.4997 80.2471C97.2169 80.2471 92.2636 34.7651 92.2636 34.7651H0.735785Z" fill="#323E48"/>
<path d="M6.06179 41.4644L6.18802 37.955C6.46454 30.432 8.80894 25.1339 13.1611 22.2145C16.5936 19.9097 20.579 19.6269 23.759 20.2047C26.6144 16.1051 30.9605 13.8987 36.4729 13.8003C40.6567 13.7389 43.7646 15.1709 45.8806 16.6829C48.8261 13.9908 52.6974 12.6325 57.1277 12.78C62.3214 12.9644 66.6856 15.257 69.2524 19.0307C74.7227 18.5391 78.4738 20.7701 80.734 22.8844C85.2966 27.1376 87.2142 34.0828 86.7032 38.4589L86.3546 41.4337L6.04976 41.4583L6.06179 41.4644ZM20.8736 26.7258C19.5571 26.7258 18.0784 26.9962 16.7859 27.8629C14.6639 29.2888 13.63 31.987 13.1491 34.6975L79.8984 34.679C79.3995 32.3926 78.2093 29.6821 76.2857 27.8874C74.1577 25.9084 71.5127 25.2999 68.1945 26.0313L65.5495 26.6152L64.4675 24.0829C62.8023 20.1739 58.6185 19.6085 56.8993 19.547C53.4067 19.4241 50.6475 20.7394 48.8982 23.3638L46.4757 26.9901L43.6684 23.665C42.8629 22.7123 40.5846 20.4997 36.5931 20.5673C32.4874 20.6411 29.9266 22.2022 28.2855 25.6256L26.945 28.416L24.1137 27.2851C23.5306 27.0516 22.2983 26.732 20.8736 26.732V26.7258Z" fill="#323E48"/>
<path d="M65.4713 42.1344L57.7468 38.1885L75.7326 0.794922L83.4571 4.74079L65.4713 42.1344Z" fill="#323E48"/>
</svg>

<svg xmlns="http://www.w3.org/2000/svg" width="93" height="81" fill="none"><path fill="#323E48" d="M.736 34.765S-4.218 80.247 46.5 80.247c50.717 0 45.764-45.482 45.764-45.482z"/><path fill="#323E48" d="m6.062 41.464.126-3.509c.277-7.523 2.62-12.821 6.973-15.74 3.433-2.305 7.418-2.588 10.598-2.01 2.855-4.1 7.201-6.306 12.714-6.405 4.184-.061 7.292 1.37 9.408 2.883 2.945-2.692 6.816-4.05 11.247-3.903 5.193.184 9.558 2.477 12.124 6.25 5.47-.49 9.222 1.74 11.482 3.854 4.563 4.254 6.48 11.199 5.97 15.575l-.35 2.975-80.304.024zm14.812-14.738c-1.317 0-2.796.27-4.088 1.137-2.122 1.426-3.156 4.124-3.637 6.834l66.75-.018c-.5-2.286-1.69-4.997-3.613-6.792-2.128-1.979-4.773-2.587-8.091-1.856l-2.645.584-1.082-2.532c-1.666-3.91-5.85-4.474-7.569-4.536-3.492-.123-6.251 1.192-8 3.817l-2.423 3.626-2.808-3.325c-.805-.953-3.083-3.165-7.075-3.098-4.106.074-6.666 1.635-8.308 5.059l-1.34 2.79-2.831-1.13c-.583-.234-1.816-.554-3.24-.554z"/><path fill="#323E48" d="m65.471 42.134-7.724-3.946L75.733.795l7.724 3.946z"/></svg>
